app/assets/images/bubble-penis.svg

<svg width="146" height="141" viewBox="0 0 146 141" fill="none" xmlns="http://www.w3.org/2000/svg">
<path d="M70.2557 76.8707C72.7921 67.0015 69.8457 41.4347 73.4215 39.0818C76.9973 36.7289 132.541 11.4577 132.379 14.1705C131.902 19.4007 129.967 28.7263 123.23 45.7709C118.066 56.2074 109.57 70.0528 100.783 81.0281C91.9965 92.0034 83.3858 100.125 76.9973 104.938C67.3474 112.209 60.2044 116.731 48.4959 119.852C29.4441 124.929 12.1975 129.448 13.0289 126.641C13.3579 125.53 17.2856 121.939 25.9923 116.099C38.5314 107.689 49.128 101.166 55.042 95.1262C62.656 87.3501 69.0898 81.4074 70.2557 76.8707Z" fill="white" stroke="white" stroke-width="26" stroke-linecap="round"/>
</svg>

<svg xmlns="http://www.w3.org/2000/svg" width="146" height="141" fill="none"><path fill="#fff" stroke="#fff" stroke-linecap="round" stroke-width="26" d="M70.256 76.87c2.536-9.869-.41-35.435 3.165-37.788s59.12-27.624 58.958-24.911c-.477 5.23-2.412 14.555-9.149 31.6-5.164 10.436-13.66 24.282-22.447 35.257s-17.397 19.097-23.786 23.91c-9.65 7.271-16.793 11.793-28.501 14.914-19.052 5.077-36.299 9.596-35.467 6.789.329-1.111 4.257-4.702 12.963-10.542 12.54-8.41 23.136-14.933 29.05-20.973 7.614-7.776 14.048-13.719 15.214-18.255Z"/></svg>
